static/img/d12.svg

<?xml version="1.0" encoding="UTF-8" standalone="no"?>
<svg
   xmlns:dc="http://purl.org/dc/elements/1.1/"
   xmlns:cc="http://creativecommons.org/ns#"
   xmlns:rdf="http://www.w3.org/1999/02/22-rdf-syntax-ns#"
   xmlns:svg="http://www.w3.org/2000/svg"
   xmlns="http://www.w3.org/2000/svg"
   xmlns:sodipodi="http://sodipodi.sourceforge.net/DTD/sodipodi-0.dtd"
   xmlns:inkscape="http://www.inkscape.org/namespaces/inkscape"
   version="1.1"
   x="0px"
   y="0px"
   viewBox="0 0 110 110.00001"
   enable-background="new 0 0 100 100"
   xml:space="preserve"
   id="svg18"
   width="110"
   height="110"
   sodipodi:docname="d12.svg"
   inkscape:version="0.92.1 r15371"><sodipodi:namedview
     pagecolor="#ffffff"
     bordercolor="#666666"
     borderopacity="1"
     objecttolerance="10"
     gridtolerance="10"
     guidetolerance="10"
     inkscape:pageopacity="0"
     inkscape:pageshadow="2"
     inkscape:window-width="1115"
     inkscape:window-height="636"
     id="namedview10"
     showgrid="false"
     units="px"
     inkscape:zoom="3.3640324"
     inkscape:cx="52.44046"
     inkscape:cy="51.436372"
     inkscape:window-x="0"
     inkscape:window-y="0"
     inkscape:window-maximized="0"
     inkscape:current-layer="svg18" /><metadata
     id="metadata24"><rdf:RDF><cc:Work
         rdf:about=""><dc:format>image/svg+xml</dc:format><dc:type
           rdf:resource="http://purl.org/dc/dcmitype/StillImage" /><dc:title></dc:title></cc:Work></rdf:RDF></metadata><defs
     id="defs22" /><path
     d="M 2.69115,38.713279 3.3213041,72.191655 22.138076,99.152749 33.547119,82.846704 23.170428,45.740016 Z"
     id="path4"
     style="fill:#000000;stroke-width:1"
     inkscape:connector-curvature="0" /><path
     d="m 74.275566,83.75796 -37.595173,-0.225403 -12.08989,16.992683 30.389011,9.47477 31.045034,-9.90203 z"
     id="path6"
     style="fill:#000000;stroke-width:1"
     inkscape:connector-curvature="0" /><path
     d="M 3.4418861,36.44243 22.394787,10.953967 53.76503,0.170516 v 18.952903 l -30.304906,23.86915 z"
     id="path8"
     style="fill:#000000;stroke-width:1"
     inkscape:connector-curvature="0" /><path
     d="M 57.497073,0.18957993 88.539864,10.646701 106.65395,36.803523 87.558633,43.494959 57.1685,19.471055 Z"
     id="path10"
     style="fill:#000000;stroke-width:1"
     inkscape:connector-curvature="0" /><path
     d="M 76.832374,82.254153 88.511829,46.637142 107.30885,40.10046 107.22363,72.125604 88.598177,98.266725 Z"
     id="path12"
     style="fill:#000000;stroke-width:1"
     inkscape:connector-curvature="0" /></svg>

<svg width="110" height="110" enable-background="new 0 0 100 100" version="1.1" viewBox="0 0 110 110.00001" xml:space="preserve" xmlns="http://www.w3.org/2000/svg"><g><path d="m2.6912 38.713 0.63015 33.478 18.817 26.961 11.409-16.306-10.377-37.107z"/><path d="m74.276 83.758-37.595-0.2254-12.09 16.993 30.389 9.4748 31.045-9.902z"/><path d="m3.4419 36.442 18.953-25.488 31.37-10.783v18.953l-30.305 23.869z"/><path d="m57.497 0.18958 31.043 10.457 18.114 26.157-19.095 6.6914-30.39-24.024z"/><path d="m76.832 82.254 11.679-35.617 18.797-6.5367-0.08522 32.025-18.625 26.141z"/></g></svg>
